icons/cshtml.svg

<svg width="16" height="16" viewBox="0 0 16 16" fill="none" xmlns="http://www.w3.org/2000/svg">
<path fill-rule="evenodd" clip-rule="evenodd" d="M8.5 2.28868C8.1906 2.11004 7.8094 2.11004 7.5 2.28868L3.30385 4.71133C2.99445 4.88996 2.80385 5.22009 2.80385 5.57735V10.4227C2.80385 10.7799 2.99445 11.11 3.30385 11.2887L7.5 13.7113C7.8094 13.89 8.1906 13.89 8.5 13.7113L12.6962 11.2887C13.0056 11.11 13.1962 10.7799 13.1962 10.4227V5.57735C13.1962 5.22009 13.0056 4.88996 12.6962 4.71133L8.5 2.28868ZM4 7.33333V8.66667L7 11V9.5L5 8L7 6.5V5L4 7.33333ZM9 5V6.5L11 8L9 9.5V11L12 8.66667V7.33333L9 5Z" fill="#BA43AF"/>
</svg>

<svg xmlns="http://www.w3.org/2000/svg" width="16" height="16" fill="none"><path fill="#BA43AF" fill-rule="evenodd" d="M8.5 2.289a1 1 0 0 0-1 0L3.304 4.71a1 1 0 0 0-.5.866v4.846a1 1 0 0 0 .5.866L7.5 13.71a1 1 0 0 0 1 0l4.196-2.422a1 1 0 0 0 .5-.866V5.577a1 1 0 0 0-.5-.866L8.5 2.29ZM4 7.333v1.334L7 11V9.5L5 8l2-1.5V5L4 7.333ZM9 5v1.5L11 8 9 9.5V11l3-2.333V7.333L9 5Z" clip-rule="evenodd"/></svg>
